public/assets/imgs/filter-icon.svg

<svg fill="none" height="55" viewBox="0 0 65 55" width="65" xmlns="http://www.w3.org/2000/svg"><path clip-rule="evenodd" d="m51.354.5c-3.5386 0-6.5279 2.34641-7.4991 5.56762h-41.09108c-1.25027 0-2.26382 1.01355-2.26382 2.26383s1.01355 2.26385 2.26382 2.26385h41.09108c.9712 3.2212 3.9605 5.5676 7.4991 5.5676s6.5279-2.3464 7.4991-5.5676h3.3831c1.2502 0 2.2638-1.01357 2.2638-2.26385s-1.0136-2.26383-2.2638-2.26383h-3.3831c-.9712-3.22121-3.9605-5.56762-7.4991-5.56762zm-3.8099 7.83145c0-2.10418 1.7057-3.80995 3.8099-3.80995s3.8099 1.70577 3.8099 3.80995c0 2.10415-1.7057 3.80995-3.8099 3.80995s-3.8099-1.7058-3.8099-3.80995zm-32.8858 11.14905c-3.5386 0-6.52793 2.3465-7.49914 5.5677h-4.39534c-1.25027 0-2.26382 1.0135-2.26382 2.2638s1.01355 2.2638 2.26382 2.2638h4.39534c.97121 3.2212 3.96054 5.5676 7.49914 5.5676 3.5385 0 6.5279-2.3464 7.4991-5.5676h40.0788c1.2502 0 2.2638-1.0135 2.2638-2.2638s-1.0136-2.2638-2.2638-2.2638h-40.0788c-.9712-3.2212-3.9606-5.5677-7.4991-5.5677zm-3.81 7.8315c0-2.1042 1.7058-3.81 3.81-3.81s3.8099 1.7058 3.8099 3.81-1.7057 3.8099-3.8099 3.8099-3.81-1.7057-3.81-3.8099zm27.3459 11.1491c-3.5386 0-6.528 2.3464-7.4992 5.5676h-27.93118c-1.25027 0-2.26382 1.0136-2.26382 2.2638 0 1.2503 1.01355 2.2639 2.26382 2.2639h27.93118c.9712 3.2212 3.9606 5.5676 7.4992 5.5676 3.5385 0 6.5279-2.3464 7.4991-5.5676h16.5429c1.2502 0 2.2638-1.0136 2.2638-2.2639 0-1.2502-1.0136-2.2638-2.2638-2.2638h-16.5429c-.9712-3.2212-3.9606-5.5676-7.4991-5.5676zm-3.81 7.8314c0-2.1042 1.7058-3.8099 3.81-3.8099 2.1041 0 3.8099 1.7057 3.8099 3.8099s-1.7058 3.81-3.8099 3.81c-2.1042 0-3.81-1.7058-3.81-3.81z" fill="#000" fill-rule="evenodd"/></svg>

<svg width="65" height="55" viewBox="0 0 65 55" fill="none" xmlns="http://www.w3.org/2000/svg">
<path fill-rule="evenodd" clip-rule="evenodd" d="M51.354 0.5C47.8154 0.5 44.8261 2.84641 43.8549 6.06762H2.76382C1.51355 6.06762 0.5 7.08117 0.5 8.33145C0.5 9.58173 1.51355 10.5953 2.76382 10.5953H43.8549C44.8261 13.8165 47.8154 16.1629 51.354 16.1629C54.8926 16.1629 57.8819 13.8165 58.8531 10.5953H62.2362C63.4864 10.5953 64.5 9.58173 64.5 8.33145C64.5 7.08117 63.4864 6.06762 62.2362 6.06762H58.8531C57.8819 2.84641 54.8926 0.5 51.354 0.5ZM47.5441 8.33145C47.5441 6.22727 49.2498 4.5215 51.354 4.5215C53.4582 4.5215 55.1639 6.22727 55.1639 8.33145C55.1639 10.4356 53.4582 12.1414 51.354 12.1414C49.2498 12.1414 47.5441 10.4356 47.5441 8.33145ZM14.6583 19.4805C11.1197 19.4805 8.13037 21.827 7.15916 25.0482H2.76382C1.51355 25.0482 0.5 26.0617 0.5 27.312C0.5 28.5623 1.51355 29.5758 2.76382 29.5758H7.15916C8.13037 32.797 11.1197 35.1434 14.6583 35.1434C18.1968 35.1434 21.1862 32.797 22.1574 29.5758H62.2362C63.4864 29.5758 64.5 28.5623 64.5 27.312C64.5 26.0617 63.4864 25.0482 62.2362 25.0482H22.1574C21.1862 21.827 18.1968 19.4805 14.6583 19.4805ZM10.8483 27.312C10.8483 25.2078 12.5541 23.502 14.6583 23.502C16.7625 23.502 18.4682 25.2078 18.4682 27.312C18.4682 29.4162 16.7625 31.1219 14.6583 31.1219C12.5541 31.1219 10.8483 29.4162 10.8483 27.312ZM38.1942 38.4611C34.6556 38.4611 31.6662 40.8075 30.695 44.0287H2.76382C1.51355 44.0287 0.5 45.0423 0.5 46.2925C0.5 47.5428 1.51355 48.5564 2.76382 48.5564H30.695C31.6662 51.7776 34.6556 54.124 38.1942 54.124C41.7327 54.124 44.7221 51.7776 45.6933 48.5564H62.2362C63.4864 48.5564 64.5 47.5428 64.5 46.2925C64.5 45.0423 63.4864 44.0287 62.2362 44.0287H45.6933C44.7221 40.8075 41.7327 38.4611 38.1942 38.4611ZM34.3842 46.2925C34.3842 44.1883 36.09 42.4826 38.1942 42.4826C40.2983 42.4826 42.0041 44.1883 42.0041 46.2925C42.0041 48.3967 40.2983 50.1025 38.1942 50.1025C36.09 50.1025 34.3842 48.3967 34.3842 46.2925Z" fill="black"/>
</svg>
